lib/flags/s/GHA.svg

<svg xmlns="http://www.w3.org/2000/svg" fill="none" viewBox="0 0 16 12"><mask id="GHA_svg__a" width="16" height="12" x="0" y="0" mask-type="alpha" maskUnits="userSpaceOnUse"><path fill="#fff" d="M0 0H16V12H0z"/></mask><g fill-rule="evenodd" clip-rule="evenodd" mask="url(#GHA_svg__a)"><path fill="#5EAA22" d="M0 8H16V12H0V8Z"/><path fill="#FECA00" d="M0 4H16V8H0V4Z"/><path fill="#E11C1B" d="M0 0H16V4H0V0Z"/><path fill="#1D1D1D" d="M8.03771 7.24516L6.2949 8.45401L6.85179 6.38354L5.57239 5.06092L7.30478 4.98941L8.03771 2.94202L8.77065 4.98941H10.5001L9.22364 6.38354L9.86291 8.33181L8.03771 7.24516Z" opacity=".9"/></g></svg>

<svg xmlns="http://www.w3.org/2000/svg" fill="none" viewBox="0 0 16 12"><mask id="GHA_svg__a" width="16" height="12" x="0" y="0" maskUnits="userSpaceOnUse"><path fill="#fff" d="M0 0h16v12H0z"/></mask><g fill-rule="evenodd" clip-rule="evenodd" mask="url(#GHA_svg__a)"><path fill="#5EAA22" d="M0 8h16v4H0V8z"/><path fill="#FECA00" d="M0 4h16v4H0V4z"/><path fill="#E11C1B" d="M0 0h16v4H0V0z"/><path fill="#1D1D1D" d="M8.038 7.245L6.295 8.454l.557-2.07-1.28-1.323 1.733-.072.733-2.047.733 2.047h1.73L9.223 6.384l.639 1.948-1.825-1.087z" opacity=".9"/></g></svg>
